src/ui/assets/magnetic-lasso.svg

<svg width="100" height="100" viewBox="0 0 100 100" fill="none" xmlns="http://www.w3.org/2000/svg">
<path d="M84.0306 52.5529L77.4026 49.4509C76.4196 50.3319 75.3256 51.0459 74.1486 51.5779L78.7346 53.7379L49.8916 62.5759C48.3526 59.6639 44.7376 57.6139 40.5316 57.6139C39.1646 57.6139 37.8606 57.8349 36.6686 58.2269L20.3366 26.8209L44.1896 37.8099L52.0806 37.8209L17.3466 21.8159C16.7046 21.5209 15.9506 21.6669 15.4666 22.1749C14.9806 22.6839 14.8716 23.4459 15.1956 24.0709L33.7306 59.7159C31.6766 61.1989 30.3766 63.3319 30.3766 65.7109C30.3766 69.5899 33.8146 72.8349 38.3906 73.6209L34.4446 80.3869C33.9856 81.1719 34.2526 82.1799 35.0366 82.6369C35.2996 82.7909 35.5836 82.8639 35.8656 82.8639C36.4316 82.8639 36.9836 82.5709 37.2886 82.0459L42.1616 73.6929C46.9586 73.0709 50.6396 69.7699 50.6816 65.7779L83.8256 55.6239C84.4786 55.4229 84.9396 54.8409 84.9846 54.1589C85.0306 53.4769 84.6516 52.8379 84.0306 52.5529ZM33.6706 65.7109C33.6706 64.5679 34.2746 63.5059 35.2686 62.6699L39.3016 70.4279C36.1456 70.0079 33.6706 68.0209 33.6706 65.7109ZM42.8956 70.2009L38.2186 61.2069C38.9466 61.0169 39.7236 60.9079 40.5316 60.9079C44.2496 60.9079 47.3916 63.1069 47.3916 65.7109C47.3926 67.7339 45.4896 69.5099 42.8956 70.2009Z" fill="black"/>
<path d="M66.2733 28.814C66.6623 29.203 66.8763 29.72 66.8763 30.269V37.307C66.8763 38.078 66.5753 38.8 66.0313 39.345C65.4873 39.89 64.7643 40.189 63.9953 40.189L57.1863 40.179L49.2953 40.167L39.5703 40.154V51.44H53.5653H66.0513C67.8913 51.44 69.6653 51.042 71.2923 50.307C72.4693 49.775 73.5633 49.061 74.5463 48.18C74.7223 48.022 74.9043 47.869 75.0733 47.701C77.4843 45.291 78.8113 42.086 78.8113 38.678V30.719C78.8113 27.091 77.3973 23.68 74.8323 21.115C72.2673 18.549 68.8553 17.136 65.2273 17.136H53.5663H39.5713V28.245L64.8183 28.212C65.3673 28.213 65.8843 28.428 66.2733 28.814ZM51.0973 48.971H42.0413V42.659H51.0973V48.971ZM51.0973 25.742H42.0413V19.607H51.0973V25.742Z" fill="black"/>
</svg>

<svg xmlns="http://www.w3.org/2000/svg" width="100" height="100" fill="none"><path fill="#000" d="m84.03 52.553-6.627-3.102a12.723 12.723 0 0 1-3.254 2.127l4.586 2.16-28.843 8.838c-1.54-2.912-5.154-4.962-9.36-4.962-1.367 0-2.671.22-3.863.613L20.337 26.82 44.19 37.81l7.89.01-34.733-16.004a1.648 1.648 0 0 0-2.151 2.255L33.73 59.716c-2.054 1.483-3.354 3.616-3.354 5.995 0 3.879 3.438 7.124 8.014 7.91l-3.946 6.766a1.645 1.645 0 0 0 .592 2.25 1.644 1.644 0 0 0 2.252-.591l4.873-8.353c4.797-.622 8.478-3.923 8.52-7.915l33.144-10.154a1.646 1.646 0 0 0 1.159-1.465 1.644 1.644 0 0 0-.954-1.606ZM33.67 65.71c0-1.143.605-2.205 1.599-3.041l4.033 7.758c-3.156-.42-5.631-2.407-5.631-4.717Zm9.226 4.49-4.677-8.994a9.16 9.16 0 0 1 2.313-.3c3.718 0 6.86 2.2 6.86 4.804 0 2.023-1.902 3.799-4.496 4.49Z"/><path fill="#000" d="M66.273 28.814c.39.389.603.906.603 1.455v7.038c0 .771-.3 1.493-.845 2.038a2.857 2.857 0 0 1-2.036.844l-6.809-.01-7.89-.012-9.726-.013V51.44h26.481a12.697 12.697 0 0 0 8.495-3.26c.176-.158.358-.311.527-.479a12.674 12.674 0 0 0 3.738-9.023v-7.959c0-3.628-1.414-7.039-3.979-9.604a13.493 13.493 0 0 0-9.605-3.979H39.571v11.109l25.247-.033a2.06 2.06 0 0 1 1.455.602ZM51.097 48.971h-9.056v-6.312h9.056v6.312Zm0-23.229h-9.056v-6.135h9.056v6.135Z"/></svg>
